X: 9
T: Gneevgullia
Z: Michael
S: https://thesession.org/tunes/876#setting29653
R: reel
M: 4/4
L: 1/8
K: Emin
E3 F G2 EF | GBAG FADA | E (3GFE BABc | dBAd BAGF |
E3 F G2 EF | GBAG FADA | E (3GFE BABc | dBAd B (3EEE||
efge fgaf | gfed ed (3Bcd | efge fgaf |gfed ed (3bcd |
efge fgaf | gfed efga | bgaf gefd | edBA GBEF ||
GBdG eGdG | AD (3DDD ADFA |BE (3EEE BABc |dBAd BAGF |
GBdG eGdG | AD (3DDD ADFA |BE (3EEE BABc |dBAd BAGF ||"Last Time" E
